X: 21
T: Cotillon XXI.     la Chasse.
%R: jig, march
B: J. Longman "XXIV New Cotillons or French Dances", London 1770 #21
F: http://http://www.vwml.org/browse/browse-collections-dance-tune-books/browse-longmans 2015-2-22
Z: 2015 John Chambers <jc:trillian.mit.edu>
M: 6/8
L: 1/8
K: G
% - - - - - - - - - - - - - - - - - - - - - - - - - - - - -
%Voice 1 is formatted for a small scale.
V: 1 clef=treble
|:\
[GB,][GB,][GB,] [G3B,3] | [AD][AD][AD] [A3D3] | BBB dcB | [AD][AD][AD] [A3D3] |\
[GB,][GB,][GB,] [G3B,3] | [AD][AD][AD] [A3D3] | Bgf ed^c | dAF D3 :|
|:\
ddd dbd | dcB c3 | ccc cac | cBA B3 |\
eee eBG | fff f^dB | eag fe^d | eBG E3 |
[GB,][GB,][GB,] [G3B,3] | [AD][AD][AD] [A3D3] | BBB dcB | [AD][AD][AD] [A3D3] |\
BBB Bcd | AAA ABc | Bed cBA | GGG G3 :|
% - - - - - - - - - - - - - - - - - - - - - - - - - - - - -
%Voice 2 preserves the original staff breaks.
V: 2 clef=bass middle=d
|:\
G3 g3 | f3 d3 | g3 bag | d'3 d3 |\
G3 g3 | f3 d3 | g3 a3 | d3 D3 :|
|:\
z2z ^g3 | e3 a3 | z2z f3 | d3 g3 |\
z2z e3 | ^d3 B3 | e2g a2b | e3 E3 |
G3 g3 | f3 d3 | g3 bag | d'3 d3 |\
G3 g3 | f3 d3 | g2b c'2d' | g3 G3 :|
% - - - - - - - - - - Dance description - - - - - - - - - -
%%begintext align
%%    All round: the first Couple lead up & make a whole round in the Center: mean time the
%% 2d Couple Chassee to the Corners, & then Chasse\`e to the middle: change Ladies, lead up & make
%% a round in the Centre: the first Cu. Chasse\`e at Right & Left side, and then another Chasse\`e to
%% the Corner every one falls into their own Places by Chasse\`e: the 4 Ladies turn under the Arm of their Partner.
%%endtext
%%text See the title page for the set of 9 "changes" for this dance.

%%sep 1 1 500
%%sep 1 1 500
